;FLAVOR:Marlin
;TIME:43710
;Filament used: 20.6246m
;Layer height: 0.2
;MINX:62.2
;MINY:9.726
;MINZ:0.2
;MAXX:157.8
;MAXY:212.511
;MAXZ:22
;TARGET_MACHINE.NAME:Creality Ender-3
;Generated with Cura_SteamEngine 5.11.0
M140 S50
M105
M190 S50
M104 S200
M105
M109 S200
; Ender 3 Custom Start G-code
G92 E0 ; Reset Extruder
G28 ; Home all axes
G1 Z2.0 F3000 ; Move Z Axis up little to prevent scratching of Heat Bed
G1 X0.1 Y20 Z0.3 F5000.0 ; Move to start position
G1 X0.1 Y200.0 Z0.3 F1500.0 E15 ; Draw the first line
G1 X0.4 Y200.0 Z0.3 F5000.0 ; Move to side a little
G1 X0.4 Y20 Z0.3 F1500.0 E30 ; Draw the second line
G92 E0 ; Reset Extruder
G1 Z2.0 F3000 ; Move Z Axis up little to prevent scratching of Heat Bed
G1 X5 Y20 Z0.3 F5000.0 ; Move over to prevent blob squish
M82 ;absolute extrusion mode
G92 E0
G92 E0
G1 F2700 E-5
;LAYER_COUNT:110
;LAYER:0
M107
M204 S500
M205 X8 Y8
G0 F6000 X63.402 Y15.355 Z0.2
;TYPE:SKIRT
G1 F2700 E0
G1 F900 X64.71 Y13.167 E0.08479
G1 X66.629 Y11.247 E0.17507
G1 X69.509 Y9.935 E0.28033
G1 X71.851 Y9.726 E0.35854
G1 X148.916 Y9.787 E2.92173
G1 X149.98 Y9.945 E2.95751
G1 X151.596 Y10.351 E3.01293
G1 X153.761 Y11.642 E3.09677
G1 X155.688 Y13.545 E3.18684
G1 X157.018 Y16.481 E3.29405
G1 X157.223 Y18.802 E3.37154
G1 X157.131 Y108.7 E6.36157
G1 X156.994 Y109.558 E6.39046
G1 X157.583 Y110.892 E6.43897
G1 X157.8 Y113.211 E6.51643
G1 X157.726 Y204.751 E9.56107
G1 X157.523 Y206.174 E9.60887
G1 X156.617 Y208.227 E9.68351
G1 X155.347 Y209.89 E9.75311
G1 X153.57 Y211.298 E9.82851
G1 X151.311 Y212.294 E9.91063
G1 X149 Y212.511 E9.98783
G1 X69.96 Y212.437 E12.61671
G1 X68.537 Y212.234 E12.66452
G1 X66.484 Y211.328 E12.73916
G1 X64.821 Y210.058 E12.80875
G1 X63.413 Y208.281 E12.88416
G1 X62.417 Y206.022 E12.96627
G1 X62.2 Y203.711 E13.04348
G1 X62.274 Y112.171 E16.08811
G1 X62.477 Y110.747 E16.13595
G1 X62.98 Y109.609 E16.17733
G1 X62.915 Y109.363 E16.1858
G1 X62.775 Y107.545 E16.24644
G1 X62.838 Y18.033 E19.22363
G1 X62.996 Y16.969 E19.2594
G1 X63.402 Y15.355 E19.31476
G0 F6000 X63.776 Y15.508
G1 F900 X65.026 Y13.417 E19.39578
G1 X66.861 Y11.581 E19.48212
G1 X69.614 Y10.327 E19.58274
G1 X71.851 Y10.126 E19.65744
G1 X148.857 Y10.183 E22.21867
G1 X149.921 Y10.341 E22.25445
G1 X151.444 Y10.725 E22.30669
G1 X153.512 Y11.959 E22.38678
G1 X155.355 Y13.779 E22.47293
G1 X156.626 Y16.584 E22.57536
G1 X156.823 Y18.802 E22.64942
G1 X156.736 Y108.637 E25.63735
G1 X156.58 Y109.612 E25.67019
G1 X157.191 Y110.995 E25.72047
G1 X157.4 Y113.211 E25.79451
G1 X157.33 Y204.695 E28.83728
G1 X157.135 Y206.062 E28.8832
G1 X156.27 Y208.022 E28.95446
G1 X155.057 Y209.61 E29.02092
G1 X153.364 Y210.952 E29.09278
G1 X151.209 Y211.902 E29.17111
G1 X149 Y212.111 E29.24491
G1 X70.016 Y212.041 E31.87193
G1 X68.649 Y211.846 E31.91785
G1 X66.689 Y210.981 E31.98911
G1 X65.101 Y209.768 E32.05557
G1 X63.759 Y208.075 E32.12743
G1 X62.809 Y205.92 E32.20576
G1 X62.6 Y203.711 E32.27956
G1 X62.67 Y112.227 E35.32233
G1 X62.865 Y110.859 E35.36829
G1 X63.405 Y109.637 E35.41273
G1 X63.314 Y109.332 E35.42331
G1 X63.175 Y107.545 E35.48293
G1 X63.234 Y18.092 E38.45815
G1 X63.392 Y17.028 E38.49392
G1 X63.776 Y15.508 E38.54607
G0 F6000 X64.15 Y15.661
G1 F900 X65.342 Y13.667 E38.62333
G1 X67.093 Y11.915 E38.70572
G1 X69.719 Y10.719 E38.80169
G1 X71.851 Y10.526 E38.87289
G1 X148.798 Y10.579 E41.43216
G1 X149.862 Y10.737 E41.46794
G1 X151.288 Y11.098 E41.51686
G1 X153.266 Y12.278 E41.59347
G1 X155.022 Y14.013 E41.67557
G1 X156.234 Y16.687 E41.77322
G1 X156.423 Y18.802 E41.84385
G1 X156.341 Y108.574 E44.82968
G1 X156.166 Y109.666 E44.86646
G1 X156.799 Y111.099 E44.91856
G1 X157 Y113.211 E44.98913
G1 X156.934 Y204.639 E48.03004
G1 X156.747 Y205.95 E48.07408
G1 X155.923 Y207.817 E48.14196
G1 X154.769 Y209.328 E48.20519
G1 X153.155 Y210.607 E48.27369
G1 X151.107 Y211.51 E48.34813
G1 X149 Y211.711 E48.41853
G1 X70.072 Y211.645 E51.04368
G1 X68.761 Y211.458 E51.08773
G1 X66.894 Y210.634 E51.15561
G1 X65.383 Y209.48 E51.21884
G1 X64.104 Y207.866 E51.28734
G1 X63.201 Y205.818 E51.36178
G1 X63 Y203.711 E51.43218
G1 X63.066 Y112.283 E54.47309
G1 X63.253 Y110.971 E54.51716
G1 X63.834 Y109.656 E54.56498
G1 X63.713 Y109.301 E54.57745
G1 X63.575 Y107.545 E54.63604
G1 X63.63 Y18.151 E57.6093
G1 X63.788 Y17.087 E57.64507
G1 X64.15 Y15.661 E57.69401
G0 F6000 X64.524 Y15.814
G1 F900 X65.658 Y13.917 E57.76751
G1 X67.325 Y12.249 E57.84595
G1 X69.824 Y11.111 E57.93728
G1 X71.851 Y10.926 E58.00498
G1 X148.74 Y10.975 E60.56232
G1 X149.764 Y11.125 E60.59674
G1 X151.135 Y11.472 E60.64378
G1 X153.017 Y12.595 E60.71667
G1 X154.689 Y14.247 E60.79484
G1 X155.842 Y16.79 E60.88771
G1 X156.023 Y18.802 E60.9549
G1 X155.946 Y108.511 E63.93864
G1 X155.752 Y109.72 E63.97936
G1 X156.407 Y111.203 E64.03328
G1 X156.6 Y113.211 E64.10038
G1 X156.538 Y204.583 E67.13942
G1 X156.359 Y205.839 E67.18162
G1 X155.577 Y207.611 E67.24604
G1 X154.481 Y209.046 E67.3061
G1 X152.946 Y210.262 E67.37123
G1 X151.005 Y211.118 E67.44179
G1 X149 Y211.311 E67.50878
G1 X70.128 Y211.249 E70.13208
G1 X68.872 Y211.07 E70.17427
G1 X67.1 Y210.288 E70.2387
G1 X65.665 Y209.192 E70.29875
G1 X64.449 Y207.657 E70.36389
G1 X63.593 Y205.716 E70.43444
G1 X63.4 Y203.711 E70.50144
G1 X63.462 Y112.339 E73.54048
G1 X63.641 Y111.083 E73.58268
G1 X64.263 Y109.676 E73.63385
G1 X64.108 Y109.223 E73.64977
G1 X63.975 Y107.545 E73.70576
G1 X64.026 Y18.209 E76.67708
G1 X64.176 Y17.185 E76.71151
G1 X64.524 Y15.814 E76.75855
G0 F6000 X64.898 Y15.967
G1 F900 X65.974 Y14.167 E76.8283
G1 X67.557 Y12.583 E76.90278
G1 X69.929 Y11.503 E76.98947
G1 X71.851 Y11.326 E77.05367
G1 X148.683 Y11.371 E79.60911
G1 X149.666 Y11.513 E79.64214
G1 X150.982 Y11.846 E79.68729
G1 X152.768 Y12.912 E79.75647
G1 X154.356 Y14.481 E79.83072
G1 X155.45 Y16.893 E79.91881
G1 X155.623 Y18.802 E79.98256
G1 X155.551 Y108.448 E82.9642
G1 X155.374 Y109.55 E83.00133
G1 X155.316 Y109.725 E83.00746
G1 X156.015 Y111.307 E83.06498
G1 X156.2 Y113.211 E83.12861
G1 X156.142 Y204.527 E86.16579
G1 X155.971 Y205.727 E86.20611
G1 X155.23 Y207.406 E86.26715
G1 X154.191 Y208.766 E86.32407
G1 X152.74 Y209.916 E86.38565
G1 X150.903 Y210.726 E86.45243
G1 X149 Y210.911 E86.51602
G1 X70.184 Y210.853 E89.13745
G1 X68.984 Y210.682 E89.17776
G1 X67.305 Y209.941 E89.23881
G1 X65.945 Y208.902 E89.29573
G1 X64.795 Y207.451 E89.35731
G1 X63.985 Y205.614 E89.42408
G1 X63.8 Y203.711 E89.48768
G1 X63.858 Y112.395 E92.52486
G1 X64.029 Y111.195 E92.56517
G1 X64.692 Y109.694 E92.61975
G1 X64.503 Y109.141 E92.63919
G1 X64.375 Y107.545 E92.69244
G1 X64.422 Y18.266 E95.66187
G1 X64.564 Y17.283 E95.69491
G1 X64.898 Y15.967 E95.74007
G0 F6000 X65.272 Y16.12
G1 F900 X66.29 Y14.417 E95.80606
G1 X67.789 Y12.917 E95.87659
G1 X70.034 Y11.895 E95.95863
G1 X71.851 Y11.726 E96.01933
G1 X148.627 Y11.767 E98.57291
G1 X149.568 Y11.901 E98.60452
G1 X150.829 Y12.22 E98.64778
G1 X152.519 Y13.229 E98.71325
G1 X154.023 Y14.715 E98.78357
G1 X155.058 Y16.997 E98.86691
G1 X155.223 Y18.802 E98.92719
G1 X155.156 Y108.385 E101.90674
G1 X154.979 Y109.487 E101.94386
G1 X154.884 Y109.737 E101.95276
G1 X155.623 Y111.411 E102.01362
G1 X155.8 Y113.211 E102.07377
G1 X155.746 Y204.471 E105.10909
G1 X155.583 Y205.615 E105.14753
G1 X154.883 Y207.201 E105.20519
G1 X153.903 Y208.484 E105.25889
G1 X152.531 Y209.571 E105.31711
G1 X150.801 Y210.334 E105.37999
G1 X149 Y210.511 E105.44018
G1 X70.24 Y210.457 E108.05975
G1 X69.096 Y210.294 E108.09819
G1 X67.51 Y209.594 E108.15585
G1 X66.227 Y208.614 E108.20954
G1 X65.14 Y207.242 E108.26776
G1 X64.377 Y205.512 E108.33065
G1 X64.2 Y203.711 E108.39084
G1 X64.254 Y112.451 E111.42616
G1 X64.417 Y111.307 E111.46459
G1 X65.121 Y109.712 E111.52258
G1 X64.898 Y109.059 E111.54553
G1 X64.775 Y107.545 E111.59605
G1 X64.818 Y18.322 E114.56362
G1 X64.952 Y17.381 E114.59524
G1 X65.272 Y16.12 E114.63851
G0 F6000 X65.646 Y16.273
G1 F900 X66.606 Y14.667 E114.70074
G1 X68.021 Y13.251 E114.76732
G1 X70.139 Y12.287 E114.84472
G1 X71.851 Y12.126 E114.90191
G1 X148.571 Y12.163 E117.45363
G1 X149.47 Y12.289 E117.48382
G1 X150.676 Y12.594 E117.5252
G1 X152.27 Y13.546 E117.58695
G1 X153.69 Y14.949 E117.65334
G1 X154.666 Y17.1 E117.7319
G1 X154.823 Y18.802 E117.78875
G1 X154.761 Y108.322 E120.7662
G1 X154.584 Y109.424 E120.80332
G1 X154.431 Y109.775 E120.81606
G1 X154.531 Y109.922 E120.82197
G1 X155.231 Y111.513 E120.87979
G1 X155.4 Y113.211 E120.93654
G1 X155.35 Y204.415 E123.97
G1 X155.195 Y205.503 E124.00655
G1 X154.536 Y206.996 E124.06083
G1 X153.613 Y208.204 E124.11139
G1 X152.325 Y209.225 E124.16606
G1 X150.699 Y209.942 E124.22517
G1 X149 Y210.111 E124.28195
G1 X70.296 Y210.061 E126.89966
G1 X69.208 Y209.906 E126.93621
G1 X67.715 Y209.247 E126.99049
G1 X66.507 Y208.324 E127.04106
G1 X65.486 Y207.036 E127.09572
G1 X64.769 Y205.41 E127.15483
G1 X64.6 Y203.711 E127.21161
G1 X64.65 Y112.507 E130.24507
G1 X64.805 Y111.419 E130.28162
G1 X65.445 Y109.969 E130.33434
G1 X65.569 Y109.788 E130.34164
G1 X65.293 Y108.977 E130.37013
G1 X65.175 Y107.545 E130.41792
G1 X65.214 Y18.378 E133.38363
G1 X65.34 Y17.479 E133.41382
G1 X65.646 Y16.273 E133.4552
G0 F6000 X66.02 Y16.426
G1 F900 X66.922 Y14.917 E133.51368
G1 X68.253 Y13.585 E133.57631
G1 X70.244 Y12.679 E133.64906
G1 X71.851 Y12.526 E133.70275
G1 X148.516 Y12.559 E136.25264
G1 X149.372 Y12.677 E136.28138
G1 X150.523 Y12.968 E136.32087
G1 X152.021 Y13.863 E136.37891
G1 X153.357 Y15.183 E136.44137
G1 X154.274 Y17.204 E136.51519
G1 X154.423 Y18.802 E136.56857
G1 X154.366 Y108.259 E139.54392
G1 X154.197 Y109.313 E139.57942
G1 X153.968 Y109.836 E139.59841
G1 X154.165 Y110.083 E139.60892
G1 X154.839 Y111.615 E139.66459
G1 X155 Y113.211 E139.71794
G1 X154.954 Y204.359 E142.74954
G1 X154.807 Y205.391 E142.78421
G1 X154.189 Y206.791 E142.83511
G1 X153.325 Y207.922 E142.88244
G1 X152.116 Y208.88 E142.93375
G1 X150.596 Y209.55 E142.989
G1 X149 Y209.711 E143.04235
G1 X70.352 Y209.665 E145.65819
G1 X69.32 Y209.518 E145.69287
G1 X67.92 Y208.9 E145.74376
G1 X66.789 Y208.036 E145.7911
G1 X65.831 Y206.827 E145.84241
G1 X65.161 Y205.307 E145.89766
G1 X65 Y203.711 E145.95101
G1 X65.046 Y112.563 E148.9826
G1 X65.193 Y111.531 E149.01728
G1 X65.811 Y110.131 E149.06817
G1 X66.017 Y109.861 E149.07947
G1 X65.688 Y108.895 E149.11341
G1 X65.575 Y107.545 E149.15847
G1 X65.61 Y18.433 E152.12235
G1 X65.728 Y17.577 E152.15109
G1 X66.02 Y16.426 E152.19058
G0 F6000 X66.394 Y16.579
G1 F900 X67.238 Y15.167 E152.2453
G1 X68.485 Y13.919 E152.30397
G1 X70.349 Y13.071 E152.37209
G1 X71.851 Y12.926 E152.42227
G1 X148.462 Y12.955 E154.97037
G1 X149.274 Y13.065 E154.99762
G1 X150.37 Y13.342 E155.03522
G1 X151.772 Y14.18 E155.08955
G1 X153.024 Y15.417 E155.14808
G1 X153.882 Y17.308 E155.21715
G1 X154.023 Y18.802 E155.26706
G1 X153.971 Y108.196 E158.24032
G1 X153.81 Y109.2 E158.27414
G1 X153.504 Y109.897 E158.29946
G1 X153.821 Y110.294 E158.31635
G1 X154.447 Y111.717 E158.36806
G1 X154.6 Y113.211 E158.41801
G1 X154.558 Y204.303 E161.44774
G1 X154.419 Y205.279 E161.48053
G1 X153.842 Y206.586 E161.52805
G1 X153.037 Y207.64 E161.57216
G1 X151.907 Y208.535 E161.62011
G1 X150.494 Y209.158 E161.67147
G1 X149 Y209.311 E161.72142
G1 X70.408 Y209.269 E164.3354
G1 X69.432 Y209.13 E164.36819
G1 X68.125 Y208.553 E164.41571
G1 X67.071 Y207.748 E164.45982
G1 X66.176 Y206.618 E164.50776
G1 X65.553 Y205.205 E164.55913
G1 X65.4 Y203.711 E164.60908
G1 X65.442 Y112.619 E167.63881
G1 X65.581 Y111.643 E167.6716
G1 X66.158 Y110.336 E167.71912
G1 X66.465 Y109.934 E167.73594
G1 X66.083 Y108.813 E167.77533
G1 X65.975 Y107.545 E167.81766
G1 X66.006 Y18.487 E170.77974
G1 X66.116 Y17.675 E170.80699
G1 X66.394 Y16.579 E170.8446
G0 F6000 X66.768 Y16.732
G1 F900 X67.554 Y15.417 E170.89555
G1 X68.717 Y14.253 E170.95028
G1 X70.454 Y13.463 E171.01375
G1 X71.851 Y13.326 E171.06044
G1 X148.41 Y13.352 E173.6068
G1 X149.176 Y13.453 E173.6325
G1 X150.217 Y13.716 E173.66821
G1 X151.523 Y14.497 E173.71882
G1 X152.691 Y15.651 E173.77343
G1 X153.49 Y17.412 E173.83775
G1 X153.623 Y18.802 E173.88419
G1 X153.576 Y108.133 E176.85535
G1 X153.423 Y109.087 E176.88749
G1 X153.04 Y109.958 E176.91914
G1 X153.477 Y110.505 E176.94242
G1 X154.055 Y111.82 E176.9902
G1 X154.2 Y113.211 E177.03671
G1 X154.162 Y204.247 E180.06458
G1 X154.031 Y205.167 E180.09549
G1 X153.495 Y206.381 E180.13963
G1 X152.747 Y207.36 E180.18061
G1 X151.701 Y208.189 E180.225
G1 X150.391 Y208.766 E180.27261
G1 X149 Y208.911 E180.31913
G1 X70.464 Y208.873 E182.93124
G1 X69.544 Y208.742 E182.96215
G1 X68.33 Y208.206 E183.00629
G1 X67.351 Y207.458 E183.04727
G1 X66.522 Y206.412 E183.09166
G1 X65.945 Y205.102 E183.13927
G1 X65.8 Y203.711 E183.18579
G1 X65.838 Y112.675 E186.21365
G1 X65.969 Y111.755 E186.24456
G1 X66.505 Y110.541 E186.2887
G1 X66.936 Y109.976 E186.31234
G1 X66.842 Y109.801 E186.31894
G1 X66.478 Y108.731 E186.35653
G1 X66.375 Y107.545 E186.39613
G1 X66.403 Y18.539 E189.35648
G1 X66.504 Y17.773 E189.38218
G1 X66.768 Y16.732 E189.4179
G0 F6000 X67.142 Y16.885
G1 F900 X67.87 Y15.667 E189.46509
G1 X68.949 Y14.587 E189.51587
G1 X70.559 Y13.855 E189.57469
G1 X71.851 Y13.726 E189.61788
G1 X148.41 Y13.752 E192.16424
G1 X149.078 Y13.841 E192.18666
G1 X150.064 Y14.09 E192.22048
G1 X151.274 Y14.814 E192.26738
G1 X152.358 Y15.885 E192.31806
G1 X153.098 Y17.516 E192.37763
G1 X153.223 Y18.802 E192.42061
G1 X153.181 Y108.07 E195.38967
G1 X153.036 Y108.974 E195.42012
G1 X152.577 Y110.018 E195.45806
G1 X153.132 Y110.714 E195.48766
G1 X153.663 Y111.923 E195.53158
G1 X153.8 Y113.211 E195.57466
G1 X153.766 Y204.191 E198.60067
G1 X153.643 Y205.055 E198.6297
G1 X153.148 Y206.176 E198.67046
G1 X152.459 Y207.078 E198.70821
G1 X151.492 Y207.844 E198.74924
G1 X150.288 Y208.374 E198.79299
G1 X149 Y208.511 E198.83607
G1 X70.52 Y208.477 E201.44633
G1 X69.656 Y208.354 E201.47535
G1 X68.535 Y207.859 E201.51611
G1 X67.633 Y207.17 E201.55386
G1 X66.867 Y206.203 E201.59489
G1 X66.337 Y204.999 E201.63865
G1 X66.2 Y203.711 E201.68173
G1 X66.234 Y112.731 E204.70774
G1 X66.357 Y111.867 E204.73676
G1 X66.852 Y110.746 E204.77752
G1 X67.417 Y110.006 E204.80849
G1 X67.221 Y109.672 E204.82137
G1 X66.872 Y108.645 E204.85744
G1 X66.775 Y107.545 E204.89417
G1 X66.803 Y18.539 E207.85452
G1 X66.892 Y17.871 E207.87694
G1 X67.142 Y16.885 E207.91077
G0 F6000 X67.516 Y17.038
G1 F900 X68.186 Y15.917 E207.95421
G1 X69.182 Y14.92 E208.00108
G1 X70.663 Y14.247 E208.05518
G1 X71.851 Y14.126 E208.0949
G1 X148.359 Y14.149 E210.63957
G1 X148.98 Y14.229 E210.66039
G1 X149.911 Y14.464 E210.69233
G1 X151.025 Y15.131 E210.73552
G1 X152.025 Y16.119 E210.78227
G1 X152.706 Y17.62 E210.83709
G1 X152.823 Y18.802 E210.8766
G1 X152.786 Y108.007 E213.84357
G1 X152.649 Y108.861 E213.87234
G1 X152.114 Y110.079 E213.91658
G1 X152.787 Y110.923 E213.95249
G1 X153.271 Y112.026 E213.99255
G1 X153.4 Y113.211 E214.03219
G1 X153.37 Y204.135 E217.05634
G1 X153.255 Y204.943 E217.08348
G1 X152.801 Y205.971 E217.12086
G1 X152.169 Y206.798 E217.15548
G1 X151.286 Y207.498 E217.19296
G1 X150.185 Y207.982 E217.23296
G1 X149 Y208.111 E217.27261
G1 X70.576 Y208.081 E219.881
G1 X69.768 Y207.966 E219.90814
G1 X68.74 Y207.512 E219.94552
G1 X67.913 Y206.88 E219.98014
G1 X67.213 Y205.997 E220.01762
G1 X66.729 Y204.896 E220.05762
G1 X66.6 Y203.711 E220.09726
G1 X66.63 Y112.787 E223.12141
G1 X66.745 Y111.979 E223.14855
G1 X67.199 Y110.951 E223.18593
G1 X67.801 Y110.163 E223.21891
G1 X67.912 Y110.059 E223.22397
G1 X67.588 Y109.507 E223.24526
G1 X67.265 Y108.559 E223.27857
G1 X67.175 Y107.545 E223.31243
G1 X67.2 Y18.59 E226.27109
G1 X67.28 Y17.969 E226.29191
G1 X67.516 Y17.038 E226.32386
G0 F6000 X67.89 Y17.191
G1 F900 X68.502 Y16.167 E226.36353
G1 X69.414 Y15.254 E226.40645
G1 X70.769 Y14.638 E226.45596
G1 X71.851 Y14.526 E226.49214
G1 X148.31 Y14.546 E229.03518
G1 X148.882 Y14.617 E229.05435
G1 X149.758 Y14.838 E229.0844
G1 X150.779 Y15.449 E229.12397
G1 X151.691 Y16.351 E229.16663
G1 X152.314 Y17.724 E229.21678
G1 X152.423 Y18.802 E229.25282
G1 X152.391 Y107.944 E232.21769
G1 X152.262 Y108.748 E232.24478
G1 X151.768 Y109.873 E232.28564
G1 X151.545 Y110.134 E232.29706
G1 X151.813 Y110.338 E232.30826
G1 X152.442 Y111.132 E232.34195
G1 X152.879 Y112.129 E232.37816
